X:1
T:The Lord Is King! (Crosby)
T:The Lord Is King! (Crosby)
T:Ira David Sankey (1840–1908)
T:Frances Jane (Fanny) Crosby (1820–1915)
T:Public Domain Courtesy of the Cyber Hymnal™
C:Ira David Sankey (1840–1908)
Z:Public Domain
Z:Courtesy of the Cyber Hymnal™
%%score ( 1 2 ) ( 3 4 )
L:1/8
Q:1/4=115
M:4/4
K:G
V:1 treble 
V:2 treble 
V:3 bass 
V:4 bass 
V:1
 [DG]3 D [DG]2 [DA]2 | [DB]2 [Dc]2 [Gd]4 | [Gd]3 [GB] G2 [DB]2 | [DA]6 z2 | [DG]3 D [DG]2 [DA]2 | %5
w: 1.~Hear the ev- er-|last- ing song,|Break- ing thro’ the|sky:|“Glo- ry, glo- ry|
w: 2.~Hear the loud tri-|umph- ant song,|O’er the world re-|sound:|Like a might- y|
w: 3.~Praise the bless- èd|Three in One,|All ye heav’n- ly|host:|Praise the Fa- ther,|
 [DB]2 [Dc]2 [Gd]2 G2 | [GB]4 [FA]4 | G6 z2 | [Gd]3 [GB] [Ge]2 [Gd]2 | [Gd]2 [Fc]2 [Fc]4 | %10
w: be to God, To|God on|high!”|Thro’ the bless- èd|courts of light|
w: o- cean rolls The|glad, glad|sound:|“Hal- le- lu- jah!|praise the Lord!”|
w: praise the Son, And|Ho- ly|Ghost!|As it was in|all the past,|
 [Fc]3 [FA] [Fd]2 [Dc]2 | [Dc]2 [DB]2 [DB]2 [DA]2 | [DG]3 [CD] [B,G]2 [DA]2 | %13
w: Saints and an- gels,|joy- ful sing- ing,|Strike their harps and|
w: Dist- ant climes His|tri- umph sing- ing,|Lift their voice and|
w: Through e- ter- nal|ag- es ring- ing,|Ran- somed ones shall|
 [DB]2 [Dc]2 [Gd]2 (Gc) | [GB]4 [FA]4 | G6 z2 |] %16
w: shout a- loud, “The *|Lord is|king!”|
w: shout a- loud, “The *|Lord is|king!”|
w: still pro- claim, “The *|Lord is|king!”|
V:2
 x3 D x4 | x8 | x4 G2 x2 | x8 | x3 D x4 | x6 G2 | x8 | G6 x2 | x8 | x8 | x8 | x8 | x8 | x6 G2 | %14
 x8 | G6 x2 |] %16
V:3
 [G,B,]3 [G,B,] [B,,G,]2 [D,F,]2 | G,2 [G,A,]2 [G,B,]4 | [G,B,]3 [G,D] [G,B,]2 G,2 | [D,F,]6 z2 | %4
 [G,B,]3 [G,B,] [B,,G,]2 [D,F,]2 | G,2 [G,A,]2 [G,B,]2 [E,B,]2 | [D,D]4 [D,C]4 | [G,B,]6 z2 | %8
 [G,B,]3 [G,D] [G,C]2 [G,B,]2 | [D,B,]2 [D,A,]2 [D,A,]4 | [D,A,]3 [D,D] [D,A,]2 [D,F,]2 | %11
 [F,A,]2 G,2 G,2 [D,F,]2 | [B,,G,]3 [A,,F,] [G,,G,]2 [D,F,]2 | G,2 [G,A,]2 [G,B,]2 ([E,B,][C,E]) | %14
 [D,D]4 [D,C]4 | [G,B,]6 z2 |] %16
V:4
 x8 | G,2 x6 | x6 G,2 | x8 | x8 | G,2 x6 | x8 | x8 | x8 | x8 | x8 | x2 G,2 G,2 x2 | x8 | G,2 x6 | %14
 x8 | x8 |] %16

